assets/Unamused face/Flat/unamused_face_flat.svg

<svg width="32" height="32" viewBox="0 0 32 32" fill="none" xmlns="http://www.w3.org/2000/svg">
<path d="M15.9989 29.9978C25.3333 29.9978 29.9978 23.7303 29.9978 15.9989C29.9978 8.26751 25.3333 2 15.9989 2C6.66443 2 2 8.26751 2 15.9989C2 23.7303 6.66443 29.9978 15.9989 29.9978Z" fill="#FFB02E"/>
<path d="M6 15.5C6 15.331 6.00932 15.1642 6.02746 15H10.0313L12.332 15.9227L14.4639 15H14.9725C14.9907 15.1642 15 15.331 15 15.5C15 17.9853 12.9853 20 10.5 20C8.01472 20 6 17.9853 6 15.5Z" fill="white"/>
<path d="M17 15.5C17 15.331 17.0093 15.1642 17.0275 15H21.0407L23.2816 15.7124L25.448 15H25.9725C25.9907 15.1642 26 15.331 26 15.5C26 17.9853 23.9853 20 21.5 20C19.0147 20 17 17.9853 17 15.5Z" fill="white"/>
<path d="M10 15.25C10 15.1655 10.0046 15.0821 10.0137 15H14.4863C14.4954 15.0821 14.5 15.1655 14.5 15.25C14.5 16.4945 13.4945 17.5 12.25 17.5C11.0055 17.49 10 16.4845 10 15.25Z" fill="#402A32"/>
<path d="M21 15.25C21 15.1655 21.0046 15.0821 21.0137 15H25.4863C25.4954 15.0821 25.5 15.1655 25.5 15.25C25.5 16.4945 24.4945 17.5 23.25 17.5C22.0055 17.49 21 16.4845 21 15.25Z" fill="#402A32"/>
<path d="M8.06915 9.98761C7.47625 10.5505 7.11769 11.2277 6.97423 11.6581C6.88691 11.9201 6.60375 12.0617 6.34178 11.9743C6.07981 11.887 5.93823 11.6039 6.02555 11.3419C6.21542 10.7723 6.65687 9.94951 7.38064 9.26239C8.1129 8.5672 9.1478 8 10.4999 8C10.776 8 10.9999 8.22386 10.9999 8.5C10.9999 8.77614 10.776 9 10.4999 9C9.45198 9 8.65355 9.4328 8.06915 9.98761Z" fill="#402A32"/>
<path d="M23.9309 9.98761C24.5238 10.5505 24.8823 11.2277 25.0258 11.6581C25.1131 11.9201 25.3963 12.0617 25.6582 11.9743C25.9202 11.887 26.0618 11.6039 25.9745 11.3419C25.7846 10.7723 25.3431 9.94951 24.6194 9.26239C23.8871 8.5672 22.8522 8 21.5001 8C21.224 8 21.0001 8.22386 21.0001 8.5C21.0001 8.77614 21.224 9 21.5001 9C22.548 9 23.3465 9.4328 23.9309 9.98761Z" fill="#402A32"/>
<path d="M12.8944 25.4472C13.0659 25.1042 13.9954 24 16 24C18.0046 24 18.934 25.1042 19.1055 25.4472C19.3525 25.9412 19.9532 26.1414 20.4472 25.8944C20.9412 25.6474 21.1414 25.0468 20.8944 24.5528C20.3992 23.5625 18.7954 22 16 22C13.2046 22 11.6007 23.5625 11.1055 24.5528C10.8586 25.0468 11.0588 25.6474 11.5528 25.8944C12.0467 26.1414 12.6474 25.9412 12.8944 25.4472Z" fill="#402A32"/>
</svg>

<svg xmlns="http://www.w3.org/2000/svg" width="32" height="32" fill="none"><path fill="#FFB02E" d="M15.999 29.998c9.334 0 13.999-6.268 13.999-14 0-7.73-4.665-13.998-14-13.998C6.665 2 2 8.268 2 15.999c0 7.731 4.664 13.999 13.999 13.999Z"/><path fill="#fff" d="M6 15.5c0-.169.01-.336.027-.5h4.004l2.301.923L14.464 15h.508A4.5 4.5 0 1 1 6 15.5ZM17 15.5c0-.169.01-.336.027-.5h4.014l2.24.712L25.449 15h.524a4.5 4.5 0 1 1-8.973.5Z"/><path fill="#402A32" d="M10 15.25c0-.085.005-.168.014-.25h4.472a2.248 2.248 0 0 1-2.236 2.5A2.26 2.26 0 0 1 10 15.25ZM21 15.25c0-.085.005-.168.014-.25h4.472a2.248 2.248 0 0 1-2.236 2.5A2.26 2.26 0 0 1 21 15.25ZM8.07 9.988c-.594.563-.952 1.24-1.096 1.67a.5.5 0 1 1-.948-.316c.19-.57.63-1.392 1.355-2.08C8.113 8.567 9.148 8 10.5 8a.5.5 0 0 1 0 1c-1.048 0-1.846.433-2.43.988ZM23.93 9.988c.594.563.952 1.24 1.096 1.67a.5.5 0 1 0 .948-.316c-.19-.57-.63-1.392-1.355-2.08C23.887 8.567 22.852 8 21.5 8a.5.5 0 0 0 0 1c1.048 0 1.846.433 2.43.988ZM12.894 25.447C13.066 25.104 13.995 24 16 24s2.934 1.104 3.105 1.447a1 1 0 0 0 1.79-.894C20.398 23.563 18.794 22 16 22c-2.795 0-4.4 1.563-4.895 2.553a1 1 0 0 0 1.79.894Z"/></svg>
